X:1
T:Title
%%score { ( 1 4 ) | ( 2 3 ) }
L:1/8
M:6/8
K:Bb
V:1 treble nm="Grand Piano"
V:4 treble 
V:2 bass 
V:3 bass 
V:1
 z3 z2[Q:1/4=100] [DF] | [DF]2 [DF] F>GA | [DB]2 [Ec] [Fd]2 [Fd] | .[=Ed]2 [B,EB] [B,EG]2 [Ed] | %4
 c6 | [DF]2 [DF] F>GA | [DB]2 [Ec] [Fd]2 [Fd] | .c3 z3 | F3- F2 F | e2 d c>=Bc | %10
 [Fd]2 [Ec] [DB]2 F | G2 A B2 c |[M:7/8] d3 c3 F |[M:3/4] z2 z B z2 | [Gf]2 [Ge] [GB]2 [^Fc] | %15
 d2 d e2 A |[M:5/8] B-B- B3 |[M:1/8] F |[M:3/4] [Fd]>[=E_d] [F=d][DB] [_Ec][Fd] | [Gc]2 [Gc] G2 B | %20
 A2 A E2 G | [DF]3 [B,D]2 [DF] | [Fd]>[=E_d] [F=d][DB] [_Ec][Fd] | [Gc]2 [Gc] G2 B | A2 e d2 c | %25
[M:5/8] [DB]-[DB]- [DB]3 |] %26
V:2
 z3 z2 [B,,B,] | z3 .A,3 | [B,,B,]2 [B,,B,] [B,,B,]2 [B,,B,] | z[K:treble] c[K:bass]C, C,2 [C,B,] | %4
 [A,F]A,B, CB,[F,A,E] | z3 .A,3 | [B,,B,]2 [B,,B,] [B,,B,]2 [B,,B,] | .A,3 z3 | %8
 [F,A,]3- [F,A,]2 [F,A,] | [F,CF]2 [F,B,F] [F,F]->[F,_A,F][F,=A,F] | [B,,B,]2 [B,,F,] [B,,F,]2 F, | %11
 G,2 A, B,2 C |[M:7/8] D3 [F,A,E]3 [F,A,E] |[M:3/4] [B,,B,]2 [B,,B,][D,B,] [F,A,][B,_A] | %14
 [E,B,]2 [E,B,] [E,B,]2 [E,B,] | [F,B,F]2 [F,B,F] [F,A,F]2 [F,EF] |[M:5/8] [B,DF]-[B,DF]- [B,DF]3 | %17
[M:1/8][K:bass] F, |[M:3/4] [B,,B,]2 [B,,B,] [B,,B,]2 [B,,B,] | [E,B,]2 [E,B,] [E,CE]2 [G,CE] | %20
 [F,CE]2 [F,CE] [F,A,C]2 [F,A,E] | [B,,B,]3 [B,,F,]2 [B,,B,] | [B,,B,]2 [B,,B,] [B,,B,]2 [B,,B,] | %23
 [E,B,]2 [E,B,] [E,CE]2 [G,CE] | [F,CE]2 [F,A,G] [F,A,F]2 [F,A,E] | %25
[M:5/8] [B,,B,]-[B,,B,]- [B,,B,]3 |] %26
V:3
 x6 | [B,,B,]2 [B,,B,] [F,E]->[F,B,E][F,CE] | x6 | .[C,B,]3[K:treble][K:bass] z3 | F,6 | %5
 [B,,B,]2 [B,,B,] [F,E]->[F,B,E][F,CE] | x6 | C,-[C,C][C,A,] [C,C]2 [C,B,] | x6 | z3 .A,3 | x6 | %11
 x6 |[M:7/8] x7 |[M:3/4] x6 | x6 | x6 |[M:5/8] x5 |[M:1/8][K:bass] x |[M:3/4] x6 | x6 | x6 | x6 | %22
 x6 | x6 | x6 |[M:5/8] x5 |] %26
V:4
 x6 | x6 | x6 | x6 | z FG AGF | x6 | x6 | F-[FA]F [=EA]2 [EG] | x6 | x6 | x6 | x6 |[M:7/8] x7 | %13
[M:3/4] [DB]2 [DB]F- [Fc]d | x6 | x6 |[M:5/8] x5 |[M:1/8] x |[M:3/4] x6 | x6 | x6 | x6 | x6 | x6 | %24
 x6 |[M:5/8] x5 |] %26

